X: 1065
T: The Field of Flowers
R:double jig
B:O'Neill's 1065
Z:Transcribed by henrik.norbeck@mailbox.swipnet.se
M:6/8
L:1/8
K:F
g|fed cAF|BAA A2g|fed cAF|AGG G2g|
fed cAG|Ade fag|fed cAG|AFF F2:|
c|(f/g/a)g fcB|Acc c2d|(f/g/a)g fed/c/|dg^f g2c|
(f/g/a)f gcB|Ade fag|fed cAG|AFF F2:|


